X: 3
M:6/8
L:1/8
K:D
"Andante"D/2E/2|FFF GGA/2G/2|FFD EDD/2E/2|FFF GAG|FED D2:||
d>ef d>ef|AA/2B/2A/2G/2 FDD/2E/2|F/2G/2F/2E/2D/2F/2 EAG|FDD D2||

